X: 3533
T: Big John Campbell
R: reel
M: 4/4
K: Dmajor
|:(3CDE|F>ED>F A2 (3FGA|d2 f>d e>fd>B|A>F (3FFF D>F (3FFF|A>Fd>F E2- E>G|
F<E (3DEF A2 F>A|d2 A>d e>Ad>B|A>F (3FFF d>F^E>F|A>FE<F D2:|
|:(3FGA|d2 A>d e>Ad>g|f>Ae>c d>BA>d|B>e (3eee e>fe>d|
[1 B>e (3eee g>fe>f|d>AA>d e2 A>g|f2 e>c d<BA>F|B2 e>B (3efe e>c|d<B A/G/F/E/ D2:|
[2 B>e (3eee g2 (3fed|A<dd>c d>Ac>e|f>Ae>A d>A (3GFE|D>EF>e d<Ac>e|d<BA>F D2||

